X:1
T:Unus ex discipulis - Victoria
T:#
%%score [ 1 2 3 4 ]
L:1/8
Q:1/4=200
M:none
K:F
V:1 treble nm="Soprano" snm="S"
V:2 treble nm="Alto" snm="A"
V:3 treble-8 nm="Tenor" snm="T"
V:4 bass nm="Bass" snm="B"
V:1
"^Unus ex discipulis""^Tomas Luis de Victoria\n(1548-1611)" z16 | z16 | z8 d8- | d4 d4 d8 | %4
w: ||Ex|* di- sci-|
 c4 B4 c8 | d8 f8 | e8 d8 |[M:4/2] (f8 e8 | d8) c8 | =B4 d4 d8 | d16 | z8 z4 d4- | d4 A4 B4 c4 | %13
w: pu- lis me-|is tra-|det me|ho\- *|* di-|e: Vae il-|li|per|* quem tra- dar|
 d16 | d16 || z8 d8 | d4 d4 d4 c4 | B8 A4 A4 | B6 B2 B4 A4 | (G2 A2 B2 G2 A8) | =B16 || %21
w: e-|go:|Me-|li- us il- li|e- rat, si|na- tus non fu-|is\- * * * *|set.|
[M:4/2] z16 | z16 | z16 | z16 | z16 | z16 | z16 | z16 |[M:4/2] z16 | z16 | z16 | z16 | z16 | z16 | %35
w: ||||||||||||||
 z16 |[M:4/2] z8 d8 | d4 d4 d4 c4 | B8 A4[Q:1/4=198] A4 | %39
w: |Me-|li- us il- li|e- rat, si|
[Q:1/4=193] B6[Q:1/4=190] B2[Q:1/4=187] B4[Q:1/4=184] A4 | %40
w: na- tus non fu-|
[Q:1/4=181] (G2[Q:1/4=180] A2[Q:1/4=178] B2[Q:1/4=177] G2[Q:1/4=173] A8) |[Q:1/4=170] =B16 |] %42
w: is\- * * * *|set.|
V:2
 z16 | z16 | G12 G4 | B8 A4 F4 | G16 | ^F8 z4 A4- | A4 G8 F4- |[M:4/2] F4 (A6 G2 E4 | F4 G8) ^F4 | %9
w: ||Ex di-|sci- pu- lis|me-|is tra\-|* det me|* ho\- * *|* * di-|
 G4 B4 B8 | A4 A8 D4 | (^F4 G4 =F2 E2 D2 C2 | D2 E2 F8) E4 | (F4 G8 ^F4) | G16 || G8 G4 G4 | %16
w: e: Vae il-|li per quem|tra\- * * * * *|* * * dar|e- * *|go:|Me- li- us|
 B12 A4 | G8 ^F4 F4 | G6 G2 G4 A4 | (B4 G8 ^F4) | G16 ||"^Trio" z16 | z16 | z16 | z16 | z16 | z16 | %27
w: il- li|e- rat, si|na- tus non fu-|is\- * *|set.|||||||
 z4 G8 ^F4 | G4 D4 _E4 D4 | G,4 C8 =B,4 | C4 D4 _E6 E2 | D8 z4 D4 | D4 E4 F8- | F4 E4 (F4 G4- | %34
w: Hic me|tra- di- tu- rus|est, hic me|tra- di- tu- rus|est, in|ma- nus pec\-|* ca- to\- *|
 G4 ^F2 E2 F8) | G16 | G8 G4 G4 | B12 A4 | G8 ^F4 F4 | G6 G2 G4 A4 | (B4 G8 ^F4) | G16 |] %42
w: |rum.|Me- li- us|il- li|e- rat, si|na- tus non fu-|is\- * *|set.|
V:3
 d16 | G8 d8- | d4 d4 d8 | B4 G4 (A4 B4 | G16) | A8 d8 | c8 B8 |[M:4/2][K:treble-8] (d8 c8 | %8
w: U-|nus ex|* di- sci-|pu- lis me\- *||is tra-|det me|ho\- *|
 B8) A8 | G4 g4 g8 | ^f16 | z4 d8 G4 | (B4 c4 d4) G4 | (B8 A8) | G16 || z8 g8 | g4 g4 f4 f4 | %17
w: * di-|e: Vae il-|li|per quem|tra\- * * dar|e\- *|go:|Me-|li- us il- li|
 d8 d4 d4 | d6 d2 d4 d4 | d16 | d16 || z8 d8- | d4 d4 d8 | G4 d8 c4 | B8 A4 d4- | d4 ^c4 (d4 e4 | %26
w: e- rat, si|na- tus non fu-|is-|set.|Qui|* in- tin-|git me- cum|ma- num in|* pa- ro\- *|
 f6 e2 d4 c4 | B8) A8 | G8 z4 g4- | g4 ^f4 g4 d4 | (_e4 d8) c4 | d4 G4 G4 A4 | (B12 A2 G2 | %33
w: |* psi-|de hic|* me tra- di-|tu\- * rus|est in ma- nus|pec\- * *|
 A2 B2 c8) d4 | (_e2 d2 c2 B2 c8) | d16 | z8 g8 | g4 g4 f4 f4 | d8 d4 d4 | d6 d2 d4 d4 | d16 | %41
w: * * * ca-|to\- * * * *|rum.|Me-|li- us il- li|e- rat, si|na- tus non fu-|is-|
 d16 |] %42
w: set.|
V:4
 z16 | z16 | G,12 G,4 | G,8 F,4 D,4 | _E,16 | D,16 | z16 |[M:4/2] z16 | z16 | z4 G,4 G,8 | %10
w: ||Ex di-|sci- pu- lis|me-|is.||||Vae il-|
 D,8 D8- | D4 G,4 (B,6 A,2 | G,4 F,2 E,2 D,4) C,4 | (B,,6 C,2 D,8) | G,16 || z8 G,8 | %16
w: li per|* quem tra\- *|* * * * dar|e\- * *|go:|Me-|
 G,4 G,4 B,4 F,4 | G,8 D,4 D,4 | G,6 G,2 G,4 ^F,4 | (G,8 D,8) | G,16 || G,8 G,8 | G,8 D,4 G,4- | %23
w: li- us il- li|e- rat, si|na- tus non fu-|is\- *|set.|Qui in-|tin- git me\-|
 G,4 F,4 _E,8 | D,4 G,8 ^F,4 | (G,4 A,4 B,4 A,2 G,2 | A,4 B,8) A,4 | G,8 z4 C4- | C4 =B,4 C4 G,4 | %29
w: * cum ma-|num in pa-|ro\- * * * *|* * psi-|de hic|* me tra- di-|
 B,4 A,4 G,8 | z4 G,4 G,4 A,4 | (B,6 A,2 G,4) ^F,4 | (G,6 F,E, D,6 E,2 | F,2 G,2 A,8 B,4 | %34
w: tu- rus est|in ma- nus|pec\- * * ca-|to\- * * * *||
 C2 B,2 A,2 G,2 A,8) | G,16 | z8 G,8 | G,4 G,4 B,4 F,4 | G,8 D,4 D,4 | G,6 G,2 G,4 ^F,4 | %40
w: |rum.|Me-|li- us il- li|e- rat, si|na- tus non fu-|
 (G,8 D,8) | G,16 |] %42
w: is\- *|set.|

